X:15
T: ES SCHEINEN DIE STERNLEIN SO HELL
N: B0502
O: Europa, Mitteleuropa, Deutschland; Boehmen?
R: Abschieds - Lied
M: 4/4
L: 1/8
K: G
D2 | G2BBB2AG | A3BA2
DF | A2cce2dc | B4z2
D2 | G2BBd2cB | A2A2c2
BA | B3BA2A2 | d6
dc | B3dB2A2 | G4z2

@@@ Tune index: 2233
